Sources/FrostedUI/Resources/Icons.xcassets/sun16.imageset/sun-16.svg

<svg width="16" height="16" viewBox="0 0 16 16" fill="none" xmlns="http://www.w3.org/2000/svg" data-fui-icon="true">
  <g clip-path="url(#clip0_882_689)">
    <path
      d="M8 13C8.41421 13 8.75 13.3358 8.75 13.75V15.25C8.75 15.6642 8.41421 16 8 16C7.58579 16 7.25 15.6642 7.25 15.25V13.75C7.25 13.3358 7.58579 13 8 13ZM11.5352 11.5352C11.828 11.2423 12.3038 11.2423 12.5967 11.5352L13.6572 12.5967C13.9497 12.8896 13.95 13.3645 13.6572 13.6572C13.3645 13.95 12.8896 13.9497 12.5967 13.6572L11.5352 12.5967C11.2423 12.3038 11.2423 11.828 11.5352 11.5352ZM3.4043 11.5352C3.69722 11.2426 4.17208 11.2424 4.46484 11.5352C4.75761 11.8279 4.75736 12.3028 4.46484 12.5957L3.4043 13.6572C3.1114 13.9501 2.63567 13.9501 2.34277 13.6572C2.04988 13.3643 2.04988 12.8886 2.34277 12.5957L3.4043 11.5352ZM8 4C10.2091 4 12 5.79086 12 8C12 10.2091 10.2091 12 8 12C5.79086 12 4 10.2091 4 8C4 5.79086 5.79086 4 8 4ZM8 5.5C6.61929 5.5 5.5 6.61929 5.5 8C5.5 9.38071 6.61929 10.5 8 10.5C9.38071 10.5 10.5 9.38071 10.5 8C10.5 6.61929 9.38071 5.5 8 5.5ZM2.25 7.25C2.66421 7.25 3 7.58579 3 8C3 8.41421 2.66421 8.75 2.25 8.75H0.75C0.335787 8.75 1.19209e-07 8.41421 0 8C1.03479e-08 7.58579 0.335787 7.25 0.75 7.25H2.25ZM15.25 7.25C15.6642 7.25 16 7.58579 16 8C16 8.41421 15.6642 8.75 15.25 8.75H13.75C13.3358 8.75 13 8.41421 13 8C13 7.58579 13.3358 7.25 13.75 7.25H15.25ZM2.34277 2.34277C2.63567 2.04988 3.1114 2.04988 3.4043 2.34277L4.46484 3.4043C4.75736 3.69722 4.75761 4.17208 4.46484 4.46484C4.17208 4.75761 3.69722 4.75736 3.4043 4.46484L2.34277 3.4043C2.04988 3.1114 2.04988 2.63567 2.34277 2.34277ZM12.5967 2.34277C12.8896 2.05026 13.3645 2.05001 13.6572 2.34277C13.95 2.63554 13.9497 3.1104 13.6572 3.40332L12.5967 4.46484C12.3038 4.75774 11.828 4.75774 11.5352 4.46484C11.2423 4.17195 11.2423 3.69621 11.5352 3.40332L12.5967 2.34277ZM8 0C8.41421 1.853e-07 8.75 0.335787 8.75 0.75V2.25C8.75 2.66421 8.41421 3 8 3C7.58579 3 7.25 2.66421 7.25 2.25V0.75C7.25 0.335787 7.58579 2.56524e-07 8 0Z"
      fill="currentColor"
    />
  </g>
  <defs>
    <clipPath id="clip0_882_689"><path fill="currentColor" d="M0 0H16V16H0z" /></clipPath>
  </defs>
</svg>

<svg xmlns="http://www.w3.org/2000/svg" width="16" height="16" fill="none" data-fui-icon="true" viewBox="0 0 16 16"><g clip-path="url(#a)"><path fill="currentColor" d="M8 13a.75.75 0 0 1 .75.75v1.5a.75.75 0 0 1-1.5 0v-1.5A.75.75 0 0 1 8 13m3.535-1.465a.75.75 0 0 1 1.062 0l1.06 1.062a.75.75 0 0 1-1.06 1.06l-1.062-1.06a.75.75 0 0 1 0-1.062m-8.13 0a.75.75 0 0 1 1.06 1.06l-1.06 1.062a.751.751 0 0 1-1.062-1.061zM8 4a4 4 0 1 1 0 8 4 4 0 0 1 0-8m0 1.5a2.5 2.5 0 1 0 0 5 2.5 2.5 0 0 0 0-5M2.25 7.25a.75.75 0 0 1 0 1.5H.75a.75.75 0 0 1 0-1.5zm13 0a.75.75 0 0 1 0 1.5h-1.5a.75.75 0 0 1 0-1.5zM2.343 2.343a.75.75 0 0 1 1.061 0l1.06 1.061a.75.75 0 0 1-1.06 1.06l-1.061-1.06a.75.75 0 0 1 0-1.061m10.254 0a.75.75 0 0 1 1.06 1.06l-1.06 1.062a.751.751 0 0 1-1.062-1.062zM8 0a.75.75 0 0 1 .75.75v1.5a.75.75 0 0 1-1.5 0V.75A.75.75 0 0 1 8 0"/></g><defs><clipPath id="a"><path fill="currentColor" d="M0 0h16v16H0z"/></clipPath></defs></svg>
